!!!!SEGMENT: pl-wnifc--13846--144_anonim--piesni-polskie-i-ruskie-ludu-galicyjskiego-144-pidu-ja-skoczu-ja-w-pole.krn
!!!cenid: 18xx:3366
!!!COM: Anonim
!!!COM-rismid: pe30004985
!!!CDT:
!!!CNT:
!!!GTL: Pieśni polskie i ruskie ludu galicyjskiego
!!!OTL: 144. Pidu ja, skoczu ja w połe
!!!PDT: 1833
!!!AGN:
!!!SMS-siglum: PL-Wnifc
!!!SMS-shelfmark: 13846
!!!SMS-shelfwork: 144 G
!!!SMS-variant:
!!!SMS-altvar:
!!!NIFC-rismid: 1001039676
!!!URL-scan: http://repozytorium.nifc.pl/skany/pl-wnifc-nut--13846
!!!ONB-nifc:
**kern	**kern	**kern	**text
*part3	*part2	*part1	*part1
*group2	*group2	*group1	*group1
*staff3	*staff2	*staff1	*staff1
*I"[Fortepian.]	*I"[Fortepian.]	*I"[Głos.]	*
*I'	*I'	*I'	*
*Ipiano	*Ipiano	*Ivox	*
*ICklav	*ICklav	*ICvox	*
*IGacmp	*IGacmp	*IGsolo	*
*clefF4	*clefG2	*clefG2	*
*k[f#c#]	*k[f#c#]	*k[f#c#]	*
*D:	*D:	*D:	*
*M3/8	*M3/8	*M3/8	*
=1	=1	=1	=1
!	!	!LO:TX:a:B:t=E.258.	!
!	!	!LO:TX:a:B:t=Andante	!
(16F#LL 16D\	8dd^<|\L	8dd\	Pi-
16A\)	.	.	.
!	!	!	!
(16F# 16D\	8dd^<|\J	8dd\	-du
16A\)	.	.	.
(16F# 16D\	(16dd\LL	(16dd\LL	ja,
16A\JJ)	16ee\JJ)	16ee\JJ)	.
=2	=2	=2	=2
(16F#LL 16D\	8ff#^<\L	8ff#\	sko-
16A#X\)	.	.	.
(16F# 16D\	8ff#^<\J	8ff#\	-czu
16A#\)	.	.	.
(16F# 16D\	(16ee\LL	(16ee\LL	ja
16B\JJ)	16dd\JJ)	16dd\JJ)	.
=3	=3	=3	=3
[16eLL 16E\	(16dd\LL	(16dd\LL	wpo-
16e]JJ 16A\	16cc#\JJ)	16cc#\JJ)	.
16eLL 16G#X\	(8.b^/L	(8.b/L	-łe,
16E\	.	.	.
16d 16G#\	.	.	.
16E\JJ	16a|/Jk)	16a/Jk)	.
!!linebreak:original
=4	=4	=4	=4
16c#LL 16A'\	8a/	8a/	wpo-
16E'\	.	.	.
16A'\	4a/	4a/	-łe,
16c#'\	.	.	.
16e'\	.	.	.
16c#'\JJ	.	.	.
=5	=5	=5	=5
!LO:TX:t=P:problem:t. 5-6 – niewyraźne źródło	!	!	!
(16C#^<\LL	8ee\L	8ee\	tam
16A\)	.	.	.
(16BB^<\	8ee\J	8ee\	diw-
16A\)	.	.	.
[16A 16C# 16AA^<\	(16ee\LL	(16ee\LL	-cze
16A]JJ 16C# 16AA\	16ff#\JJ)	16ff#\JJ)	.
=6	=6	=6	=6
16AA\LL	8ggL 8cc#^<\	8gg\	psze-
16A\	.	.	.
16BB\	8gg 8dd^<\	8gg\	-ny-
16A\	.	.	.
16C#\	8ggJ 8ee^<\	8gg\	-ciu
16A\JJ	.	.	.
!!linebreak:original
=7	=7	=7	=7
16D\LL	(16ggLL 16dd 16a\	(16gg\LL	po-
16A\JJ	16ff#JJ 16dd 16a\)	16ff#\JJ)	.
!LO:TX:t=P:problem:mixedbeam	!	!	!
16AA/LL	(8.ff#L 8.cc# 8.g\	(8.ff#\L	-łe
16A\	.	.	.
16AA/	.	.	.
16A\JJ	16eeJk 16cc# 16g\)	16ee\Jk)	.
=8	=8	=8	=8
16F#LL 16D\	(16eeLL 16a [16f#\	(16ee\LL	po-
16A\	16ddJJ 16a 16f#\])	16dd\JJ)	.
16F# 16D\	4dd 4a 4f#\	4dd\	-łe,
16A\JJ	.	.	.
8F# 8D\	.	.	.
=9!|:	=9!|:	=9!|:	=9!|:
!LO:TX:t=P:problem:mixedbeam	!	!	!
16DD|/LL	(8ff#L 8dd'\	8ff#\	spo-
16A|\	.	.	.
(16f# 16d\	8ff# 8dd'\	8ff#\	-ło-
16A\)	.	.	.
(16f# 16d\	8ff#J 8dd'\)	8ff#\	-ta
16A\JJ)	.	.	.
!!linebreak:original
=10	=10	=10	=10
*tremolo	*	*	*
(16f#LL 16d\	(8aaL 8ff#'\	8aa\	psze-
16A\	.	.	.
16f# 16d\	8aa 8ff#'\	8aa\	-ny-
16A\	.	.	.
16f# 16d\	8aaJ 8ff#'\)	8aa\	-ciu
16A\JJ)	.	.	.
*Xtremolo	*	*	*
=11	=11	=11	=11
(16eLL 16c#\	(16aaLL 16ff#\	(16aa\LL	taj
16A\)	16ggJJ 16ee\)	16gg\JJ)	.
(16e 16c#\	(8.ggL 8.ee\	(8.gg\L	bir,
16A\JJ)	.	.	.
(16f#LL 16d\	.	.	.
16A\JJ)	16ff#Jk 16dd\)	16ff#\Jk)	.
=12	=12	=12	=12
!LO:TX:t=P:problem:mixedbeam	!	!	!
(16AA/LL	(16ff#LL 16dd\	(16ff#\LL	taj
16A\)	16eeJJ 16cc#\)	16ee\JJ)	.
(16AA\	4ee 4cc#\	4ee\	bir
16A\)	.	.	.
(16AA/	.	.	.
16A\JJ)	.	.	.
!!pagebreak:original
=13	=13	=13	=13
!LO:TX:t=P:problem:mixedbeam	!	!	!
(16AA/LL	8eeL 8cc#\	8ee\	za
16A\JJ)	.	.	.
16eLL 16c#\	8ee 8cc#\	8ee\	ne-
16A\	.	.	.
16e 16c#\	8eeJ 8cc#\	8ee\	-ju
16A\JJ	.	.	.
=14	=14	=14	=14
*tremolo	*	*	*
(16eLL 16c#\	8ggL 8ee\	8gg\	chłop-
16A\	.	.	.
16e 16c#\	8gg 8ee\	8gg\	-czy-
16A\	.	.	.
16e 16c#\	8ggJ 8ee\	8gg\	-na
16A\JJ)	.	.	.
*Xtremolo	*	*	*
=15	=15	=15	=15
*	*^	*	*
(16dLL 16D\	8ff# 8dd 8a|\	8ryy	8ff#\	jak
16A\JJ)	.	.	.	.
!LO:TX:t=P:problem:mixedbeam	!	!	!	!
(16AA/LL	(<8.ff#L 8.cc#/	4g^\	(8.ff#\L	źwir
16A\)	.	.	.	.
(16AA/	.	.	.	.
16A\JJ)	16ee/Jk)	.	16ee\Jk)	.
*	*v	*v	*	*
!!linebreak:original
=16	=16	=16	=16
.	(<8qee/	.	.
(16D\LL	8ddL) 8a 8f#/	8dd\	jak
16A\JJ)	.	.	.
8DD'>/	8ddJ 8a 8f#|/	8dd\	źwir.
8r	8r	8r	.
=:|!	=:|!	=:|!	=:|!
*-	*-	*-	*-
!!!system-decoration: g1{g2}
!!!RDF**kern: > = above
!!!RDF**kern: < = below
!!!RDF**kern: | = vertical stroke
!!!ENC: Katarzyna Serwa
!!!END: 2021-11-12
!!!ENC:Anastazja Marusiak
!!!END:2021-11-10
